svg/400/outlined/person_celebrate-fill.svg

<svg xmlns="http://www.w3.org/2000/svg" width="48" height="48" viewBox="0 -960 960 960"><path d="M373-120v-212.683Q309-338 246-346.5T120-370l15-60q85 20 171.139 28.5 86.139 8.5 174.305 8.5 87.152 0 173.291-8.5T825-430l15 60q-63 15-125.806 23.609Q651.389-337.783 587-333v213H373Zm107-334q-30 0-51.5-21.5T407-527.448Q407-557 428.5-578.5t51.948-21.5Q510-600 531.5-578.556T553-527q0 30-21.444 51.5T480-454ZM169.902-570Q149-570 134.5-584.5T120-619.902Q120-640 134.5-655t35.402-15Q190-670 205-655t15 35.098Q220-599 205-584.5T169.902-570Zm620 0Q769-570 754.5-584.5T740-619.902Q740-640 754.5-655t35.402-15Q810-670 825-655t15 35.098Q840-599 825-584.5T789.902-570Zm-500-150Q269-720 254.5-734.5T240-769.902Q240-790 254.5-805t35.402-15Q310-820 325-805t15 35.098Q340-749 325-734.5T289.902-720Zm380 0Q649-720 634.5-734.5T620-769.902Q620-790 634.5-805t35.402-15Q690-820 705-805t15 35.098Q720-749 705-734.5T669.902-720Zm-190-60Q459-780 444.5-794.5T430-829.902Q430-850 444.5-865t35.402-15Q500-880 515-865t15 35.098Q530-809 515-794.5T479.902-780Z"/></svg>

<svg xmlns="http://www.w3.org/2000/svg" width="48" height="48" viewBox="0 -960 960 960"><path d="M373-120v-212.68Q309-338 246-346.5T120-370l15-60q85 20 171.14 28.5 86.14 8.5 174.3 8.5 87.16 0 173.3-8.5Q739.87-410 825-430l15 60q-63 15-125.81 23.61Q651.39-337.78 587-333v213H373Zm107-334q-30 0-51.5-21.5T407-527.45q0-29.55 21.5-51.05Q450-600 480.45-600q29.55 0 51.05 21.44Q553-557.11 553-527q0 30-21.44 51.5Q510.11-454 480-454ZM169.9-570q-20.9 0-35.4-14.5T120-619.9q0-20.1 14.5-35.1t35.4-15q20.1 0 35.1 15t15 35.1q0 20.9-15 35.4T169.9-570Zm620 0q-20.9 0-35.4-14.5T740-619.9q0-20.1 14.5-35.1t35.4-15q20.1 0 35.1 15t15 35.1q0 20.9-15 35.4T789.9-570Zm-500-150q-20.9 0-35.4-14.5T240-769.9q0-20.1 14.5-35.1t35.4-15q20.1 0 35.1 15t15 35.1q0 20.9-15 35.4T289.9-720Zm380 0q-20.9 0-35.4-14.5T620-769.9q0-20.1 14.5-35.1t35.4-15q20.1 0 35.1 15t15 35.1q0 20.9-15 35.4T669.9-720Zm-190-60q-20.9 0-35.4-14.5T430-829.9q0-20.1 14.5-35.1t35.4-15q20.1 0 35.1 15t15 35.1q0 20.9-15 35.4T479.9-780Z"/></svg>
